Papirus/32x32/apps/zen-browser.svg

<svg width="32" height="32" version="1.1" xmlns="http://www.w3.org/2000/svg">
 <path x="0" y="0" width="16" height="16" d="m5.5 3h21a3.5 3.5 0 0 1 3.5 3.5v21a3.5 3.5 0 0 1-3.5 3.5h-21a3.5 3.5 0 0 1-3.5-3.5v-21a3.5 3.5 0 0 1 3.5-3.5z" style="opacity:.2"/>
 <path x="0" y="0" width="16" height="16" d="m5.5 2h21a3.5 3.5 0 0 1 3.5 3.5v21a3.5 3.5 0 0 1-3.5 3.5h-21a3.5 3.5 0 0 1-3.5-3.5v-21a3.5 3.5 0 0 1 3.5-3.5z" style="fill:#e3e1d4"/>
 <path d="m16 4a13 13 0 0 0-13 13 13 13 0 0 0 13 13 13 13 0 0 0 13-13 13 13 0 0 0-13-13zm0 3a10 10 0 0 1 10 10 10 10 0 0 1-10 10 10 10 0 0 1-10-10 10 10 0 0 1 10-10z" style="opacity:.2"/>
 <path d="m16 3a13 13 0 0 0-13 13 13 13 0 0 0 13 13 13 13 0 0 0 13-13 13 13 0 0 0-13-13zm0 3a10 10 0 0 1 10 10 10 10 0 0 1-10 10 10 10 0 0 1-10-10 10 10 0 0 1 10-10z" style="fill:#f76f53"/>
 <path d="m16 9a8 8 0 0 0-8 8 8 8 0 0 0 8 8 8 8 0 0 0 8-8 8 8 0 0 0-8-8zm0 2a6 6 0 0 1 6 6 6 6 0 0 1-6 6 6 6 0 0 1-6-6 6 6 0 0 1 6-6z" style="opacity:.2"/>
 <path d="m16 8c-4.418278 0-8 3.581722-8 8s3.581722 8 8 8 8-3.581722 8-8-3.581722-8-8-8zm0 2c3.313708 0 6 2.686292 6 6s-2.686292 6-6 6-6-2.686292-6-6 2.686292-6 6-6z" style="fill:#f76f53"/>
 <path d="m16 13a4 4 0 0 0-4 4 4 4 0 0 0 4 4 4 4 0 0 0 4-4 4 4 0 0 0-4-4zm0 1a3 3 0 0 1 3 3 3 3 0 0 1-3 3 3 3 0 0 1-3-3 3 3 0 0 1 3-3z" style="opacity:.2"/>
 <path d="m16 12a4 4 0 0 0-4 4 4 4 0 0 0 4 4 4 4 0 0 0 4-4 4 4 0 0 0-4-4zm0 1a3 3 0 0 1 3 3 3 3 0 0 1-3 3 3 3 0 0 1-3-3 3 3 0 0 1 3-3z" style="fill:#f76f53"/>
 <path d="m16 3c-7.1797017 0-13 5.8202983-13 13 0.0085 0.166877 0.020225 0.333575 0.035156 0.5 0.2682666-6.9701163 5.9895806-12.486297 12.964844-12.5 6.903403 0.0011346 12.602024 5.3978869 12.978516 12.291016 0.00825-0.096922 0.015412-0.193933 0.021484-0.291016 0-7.1797017-5.820298-13-13-13zm9.975 13.322266c-0.173676 5.386764-4.585448 9.666848-9.975 9.677734-5.318232-0.014123-9.6951062-4.1884-9.961-9.5-0.0171988 0.166314-0.0301612 0.333033-0.039 0.5 0 5.522847 4.477153 10 10 10s10-4.477153 10-10c-7.98e-4 -0.226133-0.0089-0.452175-0.025-0.677734z" style="fill:#ffffff;opacity:.2"/>
 <path d="m16 8c-4.418278 0-8 3.581722-8 8 0.00649 0.166993 0.018218 0.333741 0.035156 0.5 0.2635261-4.208372 3.748242-7.4897128 7.964844-7.5 4.175466 0.00159 7.647467 3.214169 7.972656 7.376953 0.012082-0.125418 0.021199-0.251104 0.027344-0.376953 0-4.418278-3.581722-8-8-8zm5.969 8.398438c-0.209306 3.145161-2.816896 5.592102-5.969 5.601562-3.112877-0.0094-5.701607-2.397935-5.961-5.5-0.01998 0.166049-0.03295 0.332862-0.039 0.5 0 3.313708 2.686292 6 6 6s6-2.686292 6-6c-3.38e-4 -0.200917-0.01052-0.401691-0.031-0.601562z" style="fill:#ffffff;opacity:.2"/>
</svg>

<svg xmlns="http://www.w3.org/2000/svg" width="32" height="32" version="1.1">
 <path style="opacity:0.2" d="m5.5 3h21a3.5 3.5 0 0 1 3.5 3.5v21a3.5 3.5 0 0 1-3.5 3.5h-21a3.5 3.5 0 0 1-3.5-3.5v-21a3.5 3.5 0 0 1 3.5-3.5z"/>
 <path style="fill:#e3e1d4" d="m5.5 2h21a3.5 3.5 0 0 1 3.5 3.5v21a3.5 3.5 0 0 1-3.5 3.5h-21a3.5 3.5 0 0 1-3.5-3.5v-21a3.5 3.5 0 0 1 3.5-3.5z"/>
 <path style="opacity:0.1" d="M 16,13 A 4,4 0 0 0 12,17 4,4 0 0 0 16,21 4,4 0 0 0 20,17 4,4 0 0 0 16,13 Z M 16,14 A 3,3 0 0 1 19,17 3,3 0 0 1 16,20 3,3 0 0 1 13,17 3,3 0 0 1 16,14 Z M 16,9 A 8,8 0 0 0 8,17 8,8 0 0 0 16,25 8,8 0 0 0 24,17 8,8 0 0 0 16,9 Z M 16,11 A 6,6 0 0 1 22,17 6,6 0 0 1 16,23 6,6 0 0 1 10,17 6,6 0 0 1 16,11 Z M 16,4 A 13,13 0 0 0 3,17 13,13 0 0 0 16,30 13,13 0 0 0 29,17 13,13 0 0 0 16,4 Z M 16,7 A 10,10 0 0 1 26,17 10,10 0 0 1 16,27 10,10 0 0 1 6,17 10,10 0 0 1 16,7 Z"/>
 <path style="fill:#f76f53" d="M 16,12 A 4,4 0 0 0 12,16 4,4 0 0 0 16,20 4,4 0 0 0 20,16 4,4 0 0 0 16,12 Z M 16,13 A 3,3 0 0 1 19,16 3,3 0 0 1 16,19 3,3 0 0 1 13,16 3,3 0 0 1 16,13 Z M 16,8 C 11.582,8 8,11.582 8,16 8,20.418 11.582,24 16,24 20.418,24 24,20.418 24,16 24,11.582 20.418,8 16,8 Z M 16,10 C 19.314,10 22,12.686 22,16 22,19.314 19.314,22 16,22 12.686,22 10,19.314 10,16 10,12.686 12.686,10 16,10 Z M 16,3 A 13,13 0 0 0 3,16 13,13 0 0 0 16,29 13,13 0 0 0 29,16 13,13 0 0 0 16,3 Z M 16,6 A 10,10 0 0 1 26,16 10,10 0 0 1 16,26 10,10 0 0 1 6,16 10,10 0 0 1 16,6 Z"/>
 <path style="fill:#ffffff;opacity:0.2" d="M 16,8 C 11.582,8 8,11.582 8,16 8.0065,16.167 8.0182,16.334 8.0352,16.5 8.2987,12.292 11.783,9.0103 16,9 20.175,9.0016 23.647,12.214 23.973,16.377 23.985,16.252 23.994,16.126 24,16 24,11.582 20.418,8 16,8 Z M 21.969,16.398 C 21.76,19.544 19.152,21.991 16,22 12.887,21.991 10.298,19.602 10.039,16.5 10.019,16.666 10.006,16.833 10,17 10,20.314 12.686,23 16,23 19.314,23 22,20.314 22,17 22,16.799 21.989,16.598 21.969,16.398 Z M 16,3 C 8.8203,3 3,8.8203 3,16 3.0085,16.167 3.0202,16.334 3.0352,16.5 3.3034,9.5299 9.0247,4.0137 16,4 22.903,4.0011 28.602,9.3979 28.979,16.291 28.987,16.194 28.994,16.097 29,16 29,8.8203 23.18,3 16,3 Z M 25.975,16.322 C 25.801,21.709 21.39,25.989 16,26 10.682,25.986 6.3049,21.812 6.039,16.5 6.0218,16.666 6.0088,16.833 6,17 6,22.523 10.477,27 16,27 21.523,27 26,22.523 26,17 25.999,16.774 25.991,16.548 25.975,16.322 Z"/>
 <path style="fill:#ffffff;opacity:0.2" d="M 5.5 2 A 3.5 3.5 0 0 0 2 5.5 L 2 6.5 A 3.5 3.5 0 0 1 5.5 3 L 26.5 3 A 3.5 3.5 0 0 1 30 6.5 L 30 5.5 A 3.5 3.5 0 0 0 26.5 2 L 5.5 2 z"/>
</svg>
